X: 2
T: The Road To The North
R: march
M: 4/4
L: 1/8
K: Dmaj
FG|A2 F2 EFGE|F6 EF|G4 EDCE|G2 B,2 D2 FG|
A2 F2 EFGE|F2 D2 A,2 FD|A,DEF G2 FG|A6 FG|
A2 F2 EFGE|F6 EF|G4 EDCE|G2 B,2 D2 A,2|
D2 F2 ECB,A,|B,2 D2 G,4|A,DEF G2 FG|A6||
|:A,2|D2 F2 F2 EF|G2 BA GEDF|EDCA, B,2 D2|D4 E4|
D2 F2 F2 EF|G2 FE DEFG|E2 C2 DEFE|D6:|

